img/logo-gradient-on-dark.svg

<svg xmlns="http://www.w3.org/2000/svg" width="1100" height="1100" fill="none" viewBox="0 0 1100 1100"><path fill="#121212" d="M0 0h1100v1100H0z"/><g clip-path="url(#clip0)"><path fill="url(#paint0_linear)" d="M701.273 717.773c-40.848 39.135-96.315 60.684-156.225 60.684-46.538 0-92.767-13.122-133.73-37.981L198 611.046v51.482l226.554 137.499c38.061 23.068 79.947 34.241 120.501 34.241 51.992 0 101.804-18.36 138.56-53.583 26.866-25.748 41.708-56.613 41.056-86.568v-3.727a181.847 181.847 0 01-23.398 27.383zm0-81.316c-40.848 39.128-96.315 60.684-156.225 60.684-46.538 0-92.767-13.128-133.73-37.981L198 529.73v51.475l226.554 137.492c38.061 23.076 79.947 34.284 120.501 34.284 51.992 0 101.804-18.36 138.56-53.583 26.866-25.748 41.708-56.613 41.056-86.561v-3.805a180.713 180.713 0 01-23.398 27.425zm0 162.674c-40.848 39.128-96.315 60.684-156.225 60.684-46.538 0-92.767-13.128-133.73-37.981L198 692.368v51.483l226.554 137.492c38.061 23.075 79.947 34.248 120.501 34.248 51.992 0 101.804-18.368 138.56-53.59 26.866-25.741 41.708-56.613 41.056-86.554v-3.741a181.946 181.946 0 01-23.398 27.397v.028zm0 81.323c-40.848 39.128-96.315 60.684-156.225 60.684-46.538 0-92.767-13.128-133.73-37.981L198 773.691v51.483l226.554 137.492c38.061 23.075 79.947 34.247 120.501 34.247 51.992 0 101.804-18.36 138.56-53.589 26.866-25.741 41.708-56.614 41.056-86.554v-3.734a181.901 181.901 0 01-23.398 27.39v.028zm178.805-357.317c-1.433 1.433-2.716 2.938-4.213 4.364a202.89 202.89 0 01-46.423 32.707 199.556 199.556 0 01-79.145 21.234h-.107v55.631h.079c38.948-2.493 77.367-17.385 107.945-46.666 1.67-1.606 3.139-3.254 4.723-4.873a171.563 171.563 0 0016.575-19.593 132.527 132.527 0 0013.107-22.481 101.22 101.22 0 009.008-34.304c.194-2.58.43-5.16.402-7.733v-4.572c-1.555 2.236-3.053 4.486-4.737 6.708a203.583 203.583 0 01-17.214 19.578zm.072-81.237c-1.433 1.433-2.809 2.867-4.3 4.3a207.01 207.01 0 01-46.38 32.721 197.845 197.845 0 01-54.75 18.181 205.57 205.57 0 01-29.547 3.26c1.061 3.369 1.885 6.787 2.609 10.227a111.072 111.072 0 012.379 25.039v20.137h.115a175.874 175.874 0 0052.872-11.574 169.028 169.028 0 0055.045-35.114c1.669-1.606 3.138-3.247 4.722-4.873a170.437 170.437 0 0016.597-19.564 131.912 131.912 0 0013.107-22.474 101.18 101.18 0 009.008-34.297c.194-2.58.43-5.16.402-7.74v-4.3c-1.498 2.15-3.075 4.3-4.701 6.45A204.475 204.475 0 01880.15 441.9zm-.072 162.56c-1.433 1.433-2.723 2.931-4.213 4.364-33.761 32.363-77.991 51.267-125.568 53.941h-.064v55.631h.043c38.884-2.494 77.338-17.364 107.917-46.666 15.651-14.992 27.067-30.815 34.398-46.918a101.256 101.256 0 009.008-34.298c.193-2.587.43-5.167.401-7.739v-4.58c-1.555 2.243-3.053 4.494-4.737 6.708a202.646 202.646 0 01-17.185 19.557zM750.297 744.087v55.632c38.92-2.494 77.339-17.357 107.917-46.667 29.145-27.948 44.108-58.641 43.779-88.955v-4.586a198.402 198.402 0 01-26.128 30.643c-33.768 32.349-77.991 51.26-125.568 53.933zm77.116-510.482L612.21 103 361.341 343.378 198 499.882l226.554 137.492c38.061 23.076 79.947 34.248 120.501 34.248 51.992 0 101.804-18.36 138.56-53.582 39.974-38.304 53.238-87.887 28.572-129.072a101.934 101.934 0 00-14.182-18.503 186.327 186.327 0 0040.239 4.464h.308a177.43 177.43 0 0064.618-12.082 168.912 168.912 0 0055.044-35.115c1.663-1.583 3.239-3.189 4.801-4.794a170.865 170.865 0 0016.54-19.564 131.914 131.914 0 0013.079-22.459 101.438 101.438 0 009.094-34.183c3.095-40.454-20.783-80.678-74.315-113.127zM620.308 574.168c-40.281 38.612-105.122 44.302-157.873 12.312l-156.762-95.147 140.696-134.855 159.392 96.766c57.466 34.828 54.299 82.857 14.569 120.924h-.022zm172.349-187.219c-38.555 36.957-100.901 47.699-153.695 15.701l-147.381-89.47 134.367-128.857 144.716 87.851c54.112 32.807 61.142 77.274 22.015 114.775h-.022z"/></g><defs><linearGradient id="paint0_linear" x1="479.075" x2="634.555" y1="988.729" y2="106.941" gradientUnits="userSpaceOnUse"><stop offset=".07" stop-color="#36BAA2"/><stop offset=".34" stop-color="#61DDC8"/><stop offset=".53" stop-color="#7DF3E1"/></linearGradient><clipPath id="clip0"><path fill="#fff" d="M198 103h704v893.913H198z"/></clipPath></defs></svg>

<svg xmlns="http://www.w3.org/2000/svg" width="1100" height="1100" fill="none" viewBox="0 0 1100 1100"><rect width="1100" height="1100" fill="#121212"/><g clip-path="url(#clip0)"><path fill="url(#paint0_linear)" d="M701.273 717.773C660.425 756.908 604.958 778.457 545.048 778.457C498.51 778.457 452.281 765.335 411.318 740.476L198 611.046V662.528L424.554 800.027C462.615 823.095 504.501 834.268 545.055 834.268C597.047 834.268 646.859 815.908 683.615 780.685C710.481 754.937 725.323 724.072 724.671 694.117V690.39C717.797 700.27 709.959 709.442 701.273 717.773V717.773ZM701.273 636.457C660.425 675.585 604.958 697.141 545.048 697.141C498.51 697.141 452.281 684.013 411.318 659.16L198 529.73V581.205L424.554 718.697C462.615 741.773 504.501 752.981 545.055 752.981C597.047 752.981 646.859 734.621 683.615 699.398C710.481 673.65 725.323 642.785 724.671 612.837V609.032C717.805 618.931 709.967 628.118 701.273 636.457V636.457ZM701.273 799.131C660.425 838.259 604.958 859.815 545.048 859.815C498.51 859.815 452.281 846.687 411.318 821.834L198 692.368V743.851L424.554 881.343C462.615 904.418 504.501 915.591 545.055 915.591C597.047 915.591 646.859 897.223 683.615 862.001C710.481 836.26 725.323 805.388 724.671 775.447V771.706C717.797 781.59 709.96 790.767 701.273 799.103V799.131ZM701.273 880.454C660.425 919.582 604.958 941.138 545.048 941.138C498.51 941.138 452.281 928.01 411.318 903.157L198 773.691V825.174L424.554 962.666C462.615 985.741 504.501 996.913 545.055 996.913C597.047 996.913 646.859 978.553 683.615 943.324C710.481 917.583 725.323 886.71 724.671 856.77V853.036C717.797 862.918 709.959 872.093 701.273 880.426V880.454ZM880.078 523.137C878.645 524.57 877.362 526.075 875.865 527.501C862 540.526 846.373 551.536 829.442 560.208C804.813 572.685 777.863 579.915 750.297 581.442H750.19V637.073H750.269C789.217 634.58 827.636 619.688 858.214 590.407C859.884 588.801 861.353 587.153 862.937 585.534C868.943 579.426 874.484 572.877 879.512 565.941C884.608 558.895 888.998 551.366 892.619 543.46C897.617 532.645 900.667 521.031 901.627 509.156C901.821 506.576 902.057 503.996 902.029 501.423V496.851C900.474 499.087 898.976 501.337 897.292 503.559C891.978 510.446 886.229 516.985 880.078 523.137V523.137ZM880.15 441.9C878.717 443.333 877.341 444.767 875.85 446.2C861.966 459.185 846.359 470.195 829.47 478.921C812.207 487.624 793.76 493.749 774.72 497.102C764.963 498.9 755.088 499.99 745.173 500.362C746.234 503.731 747.058 507.149 747.782 510.589C749.52 518.818 750.319 527.218 750.161 535.628V555.765H750.276C768.392 554.658 786.227 550.754 803.148 544.191C823.604 536.175 842.301 524.248 858.193 509.077C859.862 507.471 861.331 505.83 862.915 504.204C868.931 498.109 874.479 491.569 879.512 484.64C884.611 477.599 889.001 470.071 892.619 462.166C897.617 451.353 900.667 439.742 901.627 427.869C901.821 425.289 902.057 422.709 902.029 420.129V415.829C900.531 417.979 898.954 420.129 897.328 422.279C892.025 429.178 886.288 435.732 880.15 441.9V441.9ZM880.078 604.46C878.645 605.893 877.355 607.391 875.865 608.824C842.104 641.187 797.874 660.091 750.297 662.765H750.233V718.396H750.276C789.16 715.902 827.614 701.032 858.193 671.73C873.844 656.738 885.26 640.915 892.591 624.812C897.588 613.998 900.637 602.388 901.599 590.514C901.792 587.927 902.029 585.347 902 582.775V578.195C900.445 580.438 898.947 582.689 897.263 584.903C891.96 591.783 886.22 598.316 880.078 604.46ZM750.297 744.087V799.719C789.217 797.225 827.636 782.362 858.214 753.052C887.359 725.104 902.322 694.411 901.993 664.097V659.511C894.345 670.585 885.591 680.853 875.865 690.154C842.097 722.503 797.874 741.414 750.297 744.087ZM827.413 233.605L612.21 103L361.341 343.378L198 499.882L424.554 637.374C462.615 660.45 504.501 671.622 545.055 671.622C597.047 671.622 646.859 653.262 683.615 618.04C723.589 579.736 736.853 530.153 712.187 488.968C708.183 482.278 703.424 476.07 698.005 470.465C711.216 473.41 724.708 474.907 738.244 474.929H738.552C760.656 474.962 782.571 470.864 803.17 462.847C823.627 454.833 842.324 442.906 858.214 427.732C859.877 426.149 861.453 424.543 863.015 422.938C869.01 416.84 874.539 410.3 879.555 403.374C884.643 396.337 889.024 388.814 892.634 380.915C897.644 370.141 900.722 358.571 901.728 346.732C904.823 306.278 880.945 266.054 827.413 233.605ZM620.308 574.168C580.027 612.78 515.186 618.47 462.435 586.48L305.673 491.333L446.369 356.478L605.761 453.244C663.227 488.072 660.06 536.101 620.33 574.168H620.308ZM792.657 386.949C754.102 423.906 691.756 434.648 638.962 402.65L491.581 313.18L625.948 184.323L770.664 272.174C824.776 304.981 831.806 349.448 792.679 386.949H792.657Z"/></g><defs><linearGradient id="paint0_linear" x1="479.075" x2="634.555" y1="988.729" y2="106.941" gradientUnits="userSpaceOnUse"><stop offset=".07" stop-color="#36BAA2"/><stop offset=".34" stop-color="#61DDC8"/><stop offset=".53" stop-color="#7DF3E1"/></linearGradient><clipPath id="clip0"><rect width="704" height="893.913" x="198" y="103" fill="#fff"/></clipPath></defs></svg>
